dots-vertical-circle-outline.svg

<svg fill="currentColor" viewBox="0 0 24 24"><path d="M10.5 12a1.5 1.5 0 0 1 1.5-1.5 1.5 1.5 0 0 1 1.5 1.5 1.5 1.5 0 0 1-1.5 1.5 1.5 1.5 0 0 1-1.5-1.5m0 4.5A1.5 1.5 0 0 1 12 15a1.5 1.5 0 0 1 1.5 1.5A1.5 1.5 0 0 1 12 18a1.5 1.5 0 0 1-1.5-1.5m0-9A1.5 1.5 0 0 1 12 6a1.5 1.5 0 0 1 1.5 1.5A1.5 1.5 0 0 1 12 9a1.5 1.5 0 0 1-1.5-1.5M12 2a10 10 0 0 1 10 10 10 10 0 0 1-10 10A10 10 0 0 1 2 12 10 10 0 0 1 12 2m0 2a8 8 0 0 0-8 8 8 8 0 0 0 8 8 8 8 0 0 0 8-8 8 8 0 0 0-8-8"/></svg>

<svg  viewBox="0 0 24 24" fill="currentColor"><path  d="M10.5,12A1.5,1.5 0 0,1 12,10.5A1.5,1.5 0 0,1 13.5,12A1.5,1.5 0 0,1 12,13.5A1.5,1.5 0 0,1 10.5,12M10.5,16.5A1.5,1.5 0 0,1 12,15A1.5,1.5 0 0,1 13.5,16.5A1.5,1.5 0 0,1 12,18A1.5,1.5 0 0,1 10.5,16.5M10.5,7.5A1.5,1.5 0 0,1 12,6A1.5,1.5 0 0,1 13.5,7.5A1.5,1.5 0 0,1 12,9A1.5,1.5 0 0,1 10.5,7.5M12,2A10,10 0 0,1 22,12A10,10 0 0,1 12,22A10,10 0 0,1 2,12A10,10 0 0,1 12,2M12,4A8,8 0 0,0 4,12A8,8 0 0,0 12,20A8,8 0 0,0 20,12A8,8 0 0,0 12,4Z"/></svg>
